icons/incopy-filled.svg

<svg width="256" height="256" viewBox="0 0 256 256" fill="none" xmlns="http://www.w3.org/2000/svg">
<path d="M196 0H60C26.8629 0 0 26.8629 0 60V196C0 229.137 26.8629 256 60 256H196C229.137 256 256 229.137 256 196V60C256 26.8629 229.137 0 196 0Z" fill="#49021F"/>
<path d="M100.2 75.3138V177.914C100.2 179.014 99.7 179.514 98.8 179.514H79.3C78.4 179.514 78 179.014 78 177.914V75.3138C78 74.4138 78.5 74.0138 79.4 74.0138H98.9C99.0516 73.9899 99.2065 73.9971 99.3552 74.035C99.5039 74.073 99.6433 74.1408 99.765 74.2343C99.8866 74.3279 99.9879 74.4453 100.063 74.5793C100.138 74.7133 100.184 74.8611 100.2 75.0138V75.3138Z" fill="#FF3366"/>
<path d="M177 160.614V177.214C177.015 177.499 176.948 177.783 176.806 178.031C176.664 178.28 176.454 178.482 176.2 178.614C173.471 179.646 170.609 180.286 167.7 180.514C164.5 180.814 161.4 181.014 158.4 181.014C152.289 181.14 146.212 180.088 140.5 177.914C135.471 175.988 130.905 173.024 127.1 169.214C123.443 165.403 120.556 160.92 118.6 156.014C116.606 150.811 115.589 145.286 115.6 139.714C115.484 132.109 117.418 124.613 121.2 118.014C125.019 111.672 130.523 106.513 137.1 103.114C144.493 99.3438 152.702 97.4547 161 97.6139C164.178 97.5113 167.36 97.7122 170.5 98.2139C172.353 98.5182 174.189 98.9187 176 99.4139C176.29 99.6073 176.519 99.8792 176.661 100.198C176.803 100.517 176.851 100.869 176.8 101.214L176.6 117.814C176.6 118.814 176.2 119.114 175.3 118.914C173.509 118.295 171.669 117.827 169.8 117.514C167.151 117.119 164.478 116.918 161.8 116.914C157.707 116.849 153.648 117.668 149.9 119.314C146.466 120.857 143.55 123.357 141.5 126.514C139.34 130.208 138.265 134.437 138.4 138.714C138.4 144.314 139.6 148.714 142 151.914C144.32 155.047 147.524 157.415 151.2 158.714C154.79 160.023 158.579 160.699 162.4 160.714C164.972 160.733 167.543 160.599 170.1 160.314C171.958 160.135 173.798 159.801 175.6 159.314C176.6 159.514 177 159.814 177 160.614Z" fill="#FF3366"/>
</svg>

<svg xmlns="http://www.w3.org/2000/svg" width="256" height="256" fill="none"><path fill="#49021F" d="M196 0H60C26.863 0 0 26.863 0 60v136c0 33.137 26.863 60 60 60h136c33.137 0 60-26.863 60-60V60c0-33.137-26.863-60-60-60"/><path fill="#F36" d="M100.2 75.314v102.6c0 1.1-.5 1.6-1.4 1.6H79.3c-.9 0-1.3-.5-1.3-1.6v-102.6c0-.9.5-1.3 1.4-1.3h19.5a1.13 1.13 0 0 1 1.3 1zm76.8 85.3v16.6a1.49 1.49 0 0 1-.8 1.4 30.9 30.9 0 0 1-8.5 1.9c-3.2.3-6.3.5-9.3.5a47.6 47.6 0 0 1-17.9-3.1 38.3 38.3 0 0 1-13.4-8.7 41 41 0 0 1-8.5-13.2 45.3 45.3 0 0 1-3-16.3 42.34 42.34 0 0 1 5.6-21.7 40 40 0 0 1 15.9-14.9 50.5 50.5 0 0 1 23.9-5.5c3.178-.103 6.36.098 9.5.6q2.781.457 5.5 1.2a1.84 1.84 0 0 1 .8 1.8l-.2 16.6c0 1-.4 1.3-1.3 1.1a34 34 0 0 0-5.5-1.4 55 55 0 0 0-8-.6 28.5 28.5 0 0 0-11.9 2.4 19.6 19.6 0 0 0-8.4 7.2 22.75 22.75 0 0 0-3.1 12.2q0 8.4 3.6 13.2a19.56 19.56 0 0 0 9.2 6.8 33.1 33.1 0 0 0 11.2 2 65 65 0 0 0 7.7-.4 33.3 33.3 0 0 0 5.5-1c1 .2 1.4.5 1.4 1.3"/></svg>
